icons/payment-type.svg

<svg
  xmlns="http://www.w3.org/2000/svg"
  viewBox="0 0 500 500"
  width="500"
  height="500"
  fill="#ffffff"
>
  <path d="M5 101.1v297.8a46.7 46.7 0 0 0 46.5 46.8h397a46.7 46.7 0 0 0 46.5-46.8V101.1a46.7 46.7 0 0 0-46.5-46.8h-397A46.7 46.7 0 0 0 5 101.1zm301-24.3h142.5a24.2 24.2 0 0 1 24.2 24.3v297.8a24.2 24.2 0 0 1-24.2 24.3h-397a24.2 24.2 0 0 1-24.2-24.3V101.1a24.2 24.2 0 0 1 24.2-24.3H306z" />
  <path d="M268 228.6c-27.3-10.4-38.6-17.2-38.6-27.9 0-9.1 6.8-18.2 27.7-18.2 23.2 0 38 7.4 46.4 11l9.3-36.7c-10.6-5.2-25.1-9.7-46.7-10.7v-28.6h-31.6v30.9c-34.4 6.8-54.4 29.2-54.4 57.8 0 31.5 23.5 47.7 58 59.4 23.8 8.1 34.1 15.9 34.1 28.2S259.7 314 241.3 314c-20.9 0-39.9-6.9-53.5-14.3l-9.6 38c12.2 7.1 33.1 12.9 54.7 13.9v30.9h31.6v-33.1c37-6.6 57.3-31.2 57.3-60.1s-15.4-47.1-53.8-60.7z" />
</svg>

<svg xmlns="http://www.w3.org/2000/svg" viewBox="0 0 500 500">
  <g id="payment-type">
    <path id="outline" d="M5,101.1V398.9a46.7,46.7,0,0,0,46.5,46.8h397A46.7,46.7,0,0,0,495,398.9V101.1a46.7,46.7,0,0,0-46.5-46.8H51.5A46.7,46.7,0,0,0,5,101.1ZM306,76.8H448.5a24.2,24.2,0,0,1,24.2,24.3V398.9a24.2,24.2,0,0,1-24.2,24.3H51.5a24.2,24.2,0,0,1-24.2-24.3V101.1A24.2,24.2,0,0,1,51.5,76.8H306Z"/>
    <path id="collar-sign" d="M268,228.6c-27.3-10.4-38.6-17.2-38.6-27.9,0-9.1,6.8-18.2,27.7-18.2,23.2,0,38,7.4,46.4,11l9.3-36.7c-10.6-5.2-25.1-9.7-46.7-10.7V117.5H234.5v30.9c-34.4,6.8-54.4,29.2-54.4,57.8,0,31.5,23.5,47.7,58,59.4,23.8,8.1,34.1,15.9,34.1,28.2S259.7,314,241.3,314c-20.9,0-39.9-6.9-53.5-14.3l-9.6,38c12.2,7.1,33.1,12.9,54.7,13.9v30.9h31.6V349.4c37-6.6,57.3-31.2,57.3-60.1S306.4,242.2,268,228.6Z"/>
  </g>
</svg>
